X:1
T:Title
%%score { 1 | ( 2 3 ) }
L:1/8
Q:1/4=48
M:3/4
K:F
V:1 treble nm="Piano" snm="Pno"
V:2 bass 
V:3 bass 
V:1
"^Adagio" x6 | x6 | x6 | Ma2- a/(g/f/e/ d/^c/d/)f/- | f/4e/4d/e- e/g/a/b/- b/(^c/d/e/) | %5
 (A/4G/4F/)G- G/A/B/^c/- c/de/- | e/G/PF/E/ F/B/A/G/ A/(=B/4^c/4d/4e/4f/4g/4) | %7
 f/4e/4d/4e/4f/d/{/c} B4- | B/A/4G/4F/4G/4E/{/E} A4- | %9
 A/=B/4^c/4d/4c/4B/4A/4 d/_B/A/G/- G/4A/4G/4^F/<G/G/4 | %10
 G<e- e/4d/4^c/4d/4e/4d/4c/4=B/4 A/G/-G/4_B/4A/4G/4 | F/4G/4F/4E/4F/4A/4^C/ (C/D/) z z d- | %12
 d/c/B/A/ B/G/B/d/ g/d/b- | b/4c'/4b/4a/4b/4g/4a/4b/4 (f/e/) z z c/4d/4e/- | %14
 e/4B/4c/4d/4c/4B/4A/4G/4 A/4F/4G/4A/4B/4c/4d/4e/4 f/4e/4d/4c/4Ma- | a/d/d/4c/4d/ d<g- g2- | %16
 g/4(b/4a/4g/4f/4e/4d/4c/4) c<f- f2- | f/4e/4d/4e/4f/d/ c/4B/4A/MB- B/4c/4B/4A/<B/B/4 | %18
 B<g- g/4f/4e/4f/4g/4f/4e/4d/4 c/B/4A/<B/g/4 | %19
 B/A/a- a/4g/4f/4g/4a/4g/4f/4e/4 d/4c/4B/4A/4G/4F/4E/4F/4 | %20
 F/E/-E/4G/4F/4E/4 B/4c/4B/4A/4B/c/- c/de/- | %21
 e/4g/4f/4e/4f/4c/4d/4e/4 f/4e/4f/4g/4f/4g/4a/4g/4 a/4b/4a/4b/4c'/4a/4b/4c'/4 | %22
 c'/fe/- e/4d/4e/4f/4e/4g/4f/4e/4 d/4c/4B/4A/<B/g/4 | %23
 g/4f/4e/4g/4f/4e/4d/4f/4 e/4d/4c/4e/4d/4c/4B/4d/4 c/4B/4A/4c/4B/4A/4G/4B/4 | %24
 B/CE/ G/B/d/c/- c/4B/4A/4G/4A/c/- | c/4G/4F/4E/4F/d/ A/4B/4A/4G/4A/4G/4F/4G/4 G3/2F/4G/4 | %26
 F2 z2 z2 | z2 Mf4- | f/e/4d/4^c/d/ G/4A/4BB/ B/4=c/4B/4A/4B/4c/4B/4A/4 | B/g^c/- c/eg/- g/ba/- | %30
 a/4g/4f/4e/4f/d/- d/4^c/4d/4e/4d/4c/4=B/4A/4- A/df/- | %31
 f/4g/4f/4e/4f/b/- b/ag/- g/f/4e/4d/4c/4B/4A/4 | G/4=B/4d/4f/4-f/e/- e/4d/4c/4B/4c/G/- G/ce/- | %33
 e/4f/4_e/4d/4e/c'/- c'/4b/4a/-a/4g/4f/- f/4e/4d/4e/4f/4e/4d/4e/4 | %34
 F/4A/4G/4F/4c/4B/4A/4_e/4 d/4^c/4d3/2- d/4D/4^C/4D/4E/4F/4G/4A/4 | %35
 B/4d/4B/4A/4B/4d/4B/4A/4 G/4^F/4G3/2- G/4B/4G/4=F/4G/4e/4G/4F/4 | %36
 (G/B/^c/e/-) e/4d/4c/4d/4e/4d/4c/4=B/4 A/G/4F/<G/e/4 | %37
 (G/F/)f- f/4e/4d/4e/4f/4e/4d/4c/4 B/A/4G/<A/f/4 | A/G/g- g/4f/4e/4f/4g/4f/4e/4d/4 ^c/B/4A/<B/g/4 | %39
 (B/A)^c/- c/de/4f/4 g/4a/4b/4a/<b/b/4 | b/(^cd/4e/4) e/GA/4B/4 B/4e/4f/4g/4g/B/ | %41
 A/4d/4e/4f/4-f/^G/- G/4=B/4A/4G/4A/4B/4^c/4d/4 e/4_B/4A/4G/4A/4=G/4^F/4G/4 | %42
 !^!MG2- G/4A/4^c/4e/4g/4b/4a/- a/4g/4f/4e/4f/a/- | %43
 a/4e/4d/4^c/4d/b/ f/4g/4f/4e/4f/4e/4d/4e/4 e3/2d/4e/4 | %44
 d(c/4d/4_e/-) e/4d/4c/-c/4B/4A/- A/4G/4^F/4E/4D/4^C/4D/- | %45
 D/E/4^F/4G/4D/4G/4A/4 B/4G/4B/4c/4d/4A/4^c/4d/4 e/4f/4g/4a/4b/4d/4c/4d/4 | %46
 d/G/-G/4A/4G/4F/4 G/^c/4d/4e/G/ F/4A/4=B/4c/4d/_B/ | %47
 ^G/AD/4=G/4 F/-F/8G/8F/8E/8F/8E/8D/8E/8D/8^C/8D/8E/8 E3/2D/4E/4 | D2 z2 z2 |] %49
V:2
 F z z[K:treble] FGA | B[K:bass] z z[K:treble] AGF | E[K:bass] z z[K:treble] GFE | %3
 F[K:bass] z z[K:treble] FGA | B[K:bass] z z[K:treble] AGF | E[K:bass] z z[K:treble] GFE | %6
 F[K:bass] z z ED^C | D z z FED | E z z ED^C | D z z D^C=B, | ^C z z CDE | F z z[K:treble] FGA | %12
 B[K:bass] z z[K:treble] AGF | E[K:bass] z z[K:treble] EFG | A[K:bass] z z[K:treble] GF_E | %15
 D[K:bass] z z DCB, | C z z CB,A, | B, z z A,G,F, | E, z z E,F,G, | A, z z F,G,A, | B, z z G,A,B, | %21
 C z z CB,A, | B, z z B,A,G, | A, z z A,G,F, | G, z z G,A,E, | F,2- F,E,/D,/ E,B, | %26
 A, z z A,=B,^C | D z z[K:treble] FGA | B[K:bass] z z[K:treble] AGF | E[K:bass] z z[K:treble] GFE | %30
 F[K:bass] z z[K:treble] FGA | B[K:bass] z z B,CD | E z z EFG | A z z A,B,C | D z z CB,A, | %35
 G, z z F,E,D, | ^C, z z C,D,E, | F, z z D,E,F, | G, z z E,F,G, | A, z z A,G,F, | G, z z G,F,E, | %41
 F, z z F,E,D, | E, z z E,F,^C, | D,2- D,^C,/=B,,/ C,G, | ^F, z z F,G,A, | B, z z A,G,F, | %46
 G, z z E,F,A, | D,4- D,/^C,/G,- | G,F, z2 z2 |] %49
V:3
 DD,D,[K:treble]DEF | G[K:bass]D,D,[K:treble]FED | ^C[K:bass]D,D,[K:treble]EDC | %3
 D[K:bass]D,D,[K:treble]DEF | G[K:bass]D,D,[K:treble]FED | ^C[K:bass]D,D,[K:treble]EDC | %6
 D[K:bass]D,D,G,F,E, | D,D,,D,,DCB, | CE,E,CB,A, | B,B,,B,,B,A,G, | A,A,,A,,A,=B,^C | %11
 DD,D,[K:treble]DEF | G[K:bass]G,G,[K:treble]FED | C[K:bass]C,C,[K:treble]CDE | %14
 F[K:bass]F,F,[K:treble]EDC | B,[K:bass]B,,B,,B,A,G, | A,A,,A,,A,G,F, | G,G,,G,,F,E,D, | %18
 C,C,,C,,C,D,E, | F,C,,C,,D,E,F, | G,C,,C,,E,F,G, | A,C,,C,,A,G,F, | G,C,,C,,G,F,E, | %23
 F,C,,C,,F,E,D, | E,C,,C,,E,F,C, | D,B,, C,4 | F,F,,F,,G,F,E, | D,D,,D,,[K:treble]DEF | %28
 G[K:bass]D,D,[K:treble]FED | ^C[K:bass]D,D,[K:treble]EDC | D[K:bass]D,D,[K:treble]DEF | %31
 G[K:bass]G,,G,,G,A,B, | CC,C,CDE | FF,,F,,F,G,A, | B,B,,B,,A,G,F, | E,E,,E,,D,^C,=B,, | %36
 A,,A,,,A,,,A,,=B,,^C, | D,A,,,A,,,=B,,^C,D, | E,A,,,A,,,^C,D,E, | F,A,,,A,,,F,E,D, | %40
 E,A,,,A,,,E,D,^C, | D,A,,,A,,,D,^C,=B,, | ^C,A,,,A,,,C,D,A,, | B,,G,, A,,4 | D,D,,D,,D,E,^F, | %45
 G,D,,D,,F,E,D, | E,D,,D,,^C,D,F, | =B,,_B,,A,,^G,, A,,2 | D,2 z2 z2 |] %49

